packages/foundations/assets/icons/functional/images/medical/medical_cross_24_filled.svg

<svg xmlns="http://www.w3.org/2000/svg" width="20" height="20" fill="none"><path fill="#1A1C1F" fill-rule="evenodd" d="M7.678 3.061a.97.97 0 0 0-.627.635C7.008 3.819 7 4.085 7 5.42v1.578l-1.625.009-1.625.01-.191.093a1 1 0 0 0-.492.547C3.002 7.829 3 7.915 3 10c0 2.131.001 2.167.071 2.355.095.254.32.479.574.574.185.069.237.071 1.773.071H7v1.582c0 1.536.002 1.588.071 1.773.095.254.32.479.574.574.188.07.224.071 2.355.071s2.167-.001 2.355-.071c.254-.095.479-.32.574-.574.069-.185.071-.237.071-1.773V13h1.582c1.536 0 1.588-.002 1.773-.071.254-.095.479-.32.574-.574.07-.188.071-.224.071-2.355 0-2.085-.002-2.171-.067-2.343a1 1 0 0 0-.492-.547l-.191-.093-1.625-.01L13 6.998V5.417c0-1.502-.003-1.59-.067-1.76a1 1 0 0 0-.492-.547l-.191-.093-2.2-.008c-2.044-.007-2.212-.004-2.372.052"/></svg>

<svg width="20" height="20" viewBox="0 0 20 20" fill="none" xmlns="http://www.w3.org/2000/svg"><path d="M7.678 3.061 C 7.368 3.169,7.164 3.376,7.051 3.696 C 7.008 3.819,7.000 4.085,7.000 5.420 L 7.000 6.998 5.375 7.007 L 3.750 7.017 3.559 7.110 C 3.330 7.223,3.158 7.414,3.067 7.657 C 3.002 7.829,3.000 7.915,3.000 10.000 C 3.000 12.131,3.001 12.167,3.071 12.355 C 3.166 12.609,3.391 12.834,3.645 12.929 C 3.830 12.998,3.882 13.000,5.418 13.000 L 7.000 13.000 7.000 14.582 C 7.000 16.118,7.002 16.170,7.071 16.355 C 7.166 16.609,7.391 16.834,7.645 16.929 C 7.833 16.999,7.869 17.000,10.000 17.000 C 12.131 17.000,12.167 16.999,12.355 16.929 C 12.609 16.834,12.834 16.609,12.929 16.355 C 12.998 16.170,13.000 16.118,13.000 14.582 L 13.000 13.000 14.582 13.000 C 16.118 13.000,16.170 12.998,16.355 12.929 C 16.609 12.834,16.834 12.609,16.929 12.355 C 16.999 12.167,17.000 12.131,17.000 10.000 C 17.000 7.915,16.998 7.829,16.933 7.657 C 16.842 7.414,16.670 7.223,16.441 7.110 L 16.250 7.017 14.625 7.007 L 13.000 6.998 13.000 5.417 C 13.000 3.915,12.997 3.827,12.933 3.657 C 12.842 3.414,12.670 3.223,12.441 3.110 L 12.250 3.017 10.050 3.009 C 8.006 3.002,7.838 3.005,7.678 3.061 " fill="#1A1C1F" stroke="none" fill-rule="evenodd"></path></svg>
